X: 32855
T: Port St. Lucie
R: reel
M: 4/4
K: Dmajor
dDDDD2FA|dfef dAAd|eBBBB2ef|gfed cABc|
dDDDD2FA|dfef dAAd|eBBB gfed|ca^ga fddA:|
fddd dBBA|dABA FDDA|Beee efga|beee egfe|
fddd dBBA|dABA FDDA|G2BG Beed|ca^ga fddA:|

